images/zhuyin/34.svg

<svg width="50" height="50" viewBox="0 0 50 50" fill="none" xmlns="http://www.w3.org/2000/svg">
<path d="M18.5312 15.5938C18.9531 15.5938 19.4531 15.7578 20.0312 16.0859C20.5938 16.4453 20.875 16.75 20.875 17C20.875 17.1406 20.7891 17.375 20.6172 17.7031C20.4297 17.9688 20.25 18.3984 20.0781 18.9922C19.2969 21.9766 18.9062 23.6562 18.9062 24.0312C18.9062 24.4062 19.1562 24.5938 19.6562 24.5938C19.8125 24.5938 22.0625 24.3281 26.4062 23.7969C29.0312 23.4062 30.5156 23.1172 30.8594 22.9297C31.1719 22.7266 31.4375 22.625 31.6562 22.625C31.9219 22.625 32.3125 22.9219 32.8281 23.5156C33.2969 24.0938 33.5312 24.5156 33.5312 24.7812C33.5312 24.9531 33.375 25.1719 33.0625 25.4375C32.6562 25.7812 32.2734 26.3359 31.9141 27.1016C30.8516 28.9922 29.8672 30.4453 28.9609 31.4609C28.1172 32.4297 27.1094 33.2969 25.9375 34.0625C25.875 34.0625 25.8438 34.0312 25.8438 33.9688C27.9219 31.0625 29.3438 28.75 30.1094 27.0312C30.5781 26.2031 30.8125 25.6094 30.8125 25.25C30.8125 25.125 30.5938 25.0625 30.1562 25.0625C29.0312 25.0625 27.25 25.2109 24.8125 25.5078C22.1406 25.8047 20.4297 26.0703 19.6797 26.3047C19.0703 26.4766 18.6875 26.5625 18.5312 26.5625C18.0625 26.5625 17.625 26.4453 17.2188 26.2109C16.7812 25.8984 16.5625 25.5469 16.5625 25.1562C16.5625 24.875 16.6875 24.4688 16.9375 23.9375C17.3594 22.9531 17.7031 21.8984 17.9688 20.7734C18.2812 19.6016 18.4375 18.6562 18.4375 17.9375C18.4375 17.4375 18.3906 17.0156 18.2969 16.6719L18.1562 15.9688C18.1562 15.7188 18.2812 15.5938 18.5312 15.5938Z" fill="#333333"/>
<path d="M20.0312 16.0859L20.3004 15.6646L20.2894 15.6575L20.2781 15.6511L20.0312 16.0859ZM20.6172 17.7031L21.0257 17.9915L21.0448 17.9644L21.0601 17.9351L20.6172 17.7031ZM20.0781 18.9922L19.5977 18.8531L19.5944 18.8656L20.0781 18.9922ZM26.4062 23.7969L26.467 24.2933L26.4798 24.2914L26.4062 23.7969ZM30.8594 22.9297L31.0988 23.3686L31.1157 23.3594L31.1319 23.3489L30.8594 22.9297ZM32.8281 23.5156L33.2165 23.2007L33.2112 23.1942L33.2056 23.1878L32.8281 23.5156ZM33.0625 25.4375L33.3855 25.8192L33.3863 25.8185L33.0625 25.4375ZM31.9141 27.1016L32.3499 27.3465L32.3589 27.3306L32.3667 27.314L31.9141 27.1016ZM28.9609 31.4609L28.5878 31.128L28.5839 31.1325L28.9609 31.4609ZM25.9375 34.0625V34.5625H26.0864L26.211 34.4811L25.9375 34.0625ZM25.8438 33.9688L25.437 33.6779L25.3438 33.8084V33.9688H25.8438ZM30.1094 27.0312L29.6742 26.785L29.6624 26.8059L29.6526 26.8278L30.1094 27.0312ZM24.8125 25.5078L24.8677 26.0048L24.873 26.0041L24.8125 25.5078ZM19.6797 26.3047L19.8155 26.7861L19.8288 26.7819L19.6797 26.3047ZM17.2188 26.2109L16.9281 26.6178L16.9479 26.6319L16.9689 26.644L17.2188 26.2109ZM16.9375 23.9375L17.3899 24.1504L17.3936 24.1425L17.3971 24.1345L16.9375 23.9375ZM17.9688 20.7734L17.4856 20.6446L17.4838 20.6515L17.4821 20.6585L17.9688 20.7734ZM18.2969 16.6719L17.8066 16.7699L17.81 16.7868L17.8145 16.8034L18.2969 16.6719ZM18.1562 15.9688H17.6562V16.0183L17.666 16.0668L18.1562 15.9688ZM18.5312 16.0938C18.8305 16.0938 19.2423 16.2131 19.7844 16.5208L20.2781 15.6511C19.664 15.3026 19.0757 15.0938 18.5312 15.0938V16.0938ZM19.7621 16.5073C20.0263 16.6761 20.1973 16.8154 20.2967 16.9231C20.4046 17.0401 20.375 17.0612 20.375 17H21.375C21.375 16.6888 21.2048 16.4326 21.0315 16.2448C20.8496 16.0478 20.5987 15.8552 20.3004 15.6646L19.7621 16.5073ZM20.375 17C20.375 16.9827 20.377 17.0112 20.3411 17.1091C20.3083 17.1986 20.2544 17.3181 20.1743 17.4711L21.0601 17.9351C21.1518 17.76 21.2268 17.5983 21.28 17.4534C21.33 17.3169 21.375 17.1579 21.375 17H20.375ZM20.2087 17.4148C19.972 17.7502 19.7739 18.2451 19.5978 18.8532L20.5584 19.1312C20.7261 18.5518 20.8874 18.1873 21.0257 17.9915L20.2087 17.4148ZM19.5944 18.8656C19.2034 20.3593 18.9091 21.5305 18.7122 22.377C18.6139 22.7999 18.5389 23.1456 18.4883 23.412C18.4405 23.6635 18.4062 23.8834 18.4062 24.0312H19.4062C19.4062 23.9916 19.4209 23.8609 19.4707 23.5988C19.5177 23.3514 19.5893 23.0204 19.6862 22.6035C19.88 21.7703 20.1716 20.6094 20.5618 19.1188L19.5944 18.8656ZM18.4062 24.0312C18.4062 24.3407 18.517 24.6456 18.7937 24.8531C19.0434 25.0404 19.3582 25.0938 19.6562 25.0938V24.0938C19.5609 24.0938 19.4939 24.0846 19.4494 24.0735C19.4054 24.0625 19.3919 24.0518 19.3938 24.0531C19.3984 24.0566 19.4061 24.0654 19.41 24.0743C19.4127 24.0803 19.4062 24.07 19.4062 24.0312H18.4062ZM19.6562 25.0938C19.731 25.0938 19.9409 25.0718 20.2209 25.0409C20.5236 25.0075 20.9567 24.9575 21.5196 24.8911C22.6456 24.7581 24.2949 24.5588 26.4669 24.2932L26.3456 23.3006C24.1739 23.5662 22.5263 23.7653 21.4023 23.898C20.8402 23.9643 20.41 24.014 20.1112 24.047C19.9615 24.0635 19.8462 24.0757 19.7644 24.0837C19.6689 24.093 19.6455 24.0938 19.6562 24.0938V25.0938ZM26.4798 24.2914C27.7951 24.0957 28.8309 23.9245 29.5839 23.7779C29.9599 23.7047 30.2711 23.6365 30.5138 23.5732C30.742 23.5137 30.9533 23.448 31.0988 23.3686L30.6199 22.4907C30.5935 22.5051 30.4904 22.5459 30.2616 22.6055C30.0473 22.6614 29.7588 22.725 29.3927 22.7963C28.6613 22.9388 27.6424 23.1074 26.3327 23.3023L26.4798 24.2914ZM31.1319 23.3489C31.4139 23.1656 31.5808 23.125 31.6562 23.125V22.125C31.2942 22.125 30.9298 22.2876 30.5869 22.5105L31.1319 23.3489ZM31.6562 23.125C31.62 23.125 31.6734 23.1147 31.8459 23.2457C32.0026 23.3648 32.2036 23.559 32.4506 23.8435L33.2056 23.1878C32.937 22.8785 32.6849 22.6274 32.451 22.4496C32.2328 22.2838 31.9581 22.125 31.6562 22.125V23.125ZM32.4397 23.8305C32.6645 24.1077 32.8207 24.3326 32.9184 24.5084C32.9669 24.5958 32.9969 24.6638 33.014 24.7141C33.0317 24.7658 33.0312 24.7858 33.0312 24.7812H34.0312C34.0312 24.5193 33.9223 24.2564 33.7925 24.0228C33.6558 23.7767 33.4605 23.5016 33.2165 23.2007L32.4397 23.8305ZM33.0312 24.7812C33.0312 24.7192 33.0565 24.7146 33.0072 24.7836C32.9619 24.847 32.8782 24.938 32.7387 25.0565L33.3863 25.8185C33.5593 25.6714 33.7099 25.5202 33.8209 25.3648C33.9279 25.2151 34.0312 25.0152 34.0312 24.7812H33.0312ZM32.7395 25.0558C32.2555 25.4654 31.8354 26.0925 31.4614 26.8891L32.3667 27.314C32.7115 26.5793 33.057 26.0971 33.3855 25.8192L32.7395 25.0558ZM31.4782 26.8566C30.4243 28.7319 29.4602 30.1504 28.5879 31.128L29.334 31.7938C30.2741 30.7402 31.2788 29.2524 32.3499 27.3465L31.4782 26.8566ZM28.5839 31.1325C27.7729 32.0637 26.8008 32.9012 25.664 33.6439L26.211 34.4811C27.4179 33.6925 28.4614 32.7957 29.338 31.7893L28.5839 31.1325ZM25.9375 33.5625C25.9833 33.5625 26.1095 33.5743 26.2207 33.6855C26.332 33.7967 26.3438 33.9229 26.3438 33.9688H25.3438C25.3438 34.0771 25.3712 34.2502 25.5136 34.3926C25.6561 34.5351 25.8292 34.5625 25.9375 34.5625V33.5625ZM26.2505 34.2596C28.334 31.3457 29.7796 29.0004 30.5661 27.2347L29.6526 26.8278C28.9079 28.4996 27.5097 30.7793 25.437 33.6779L26.2505 34.2596ZM30.5445 27.2775C30.7853 26.8521 30.9731 26.4746 31.1018 26.1484C31.227 25.8313 31.3125 25.5235 31.3125 25.25H30.3125C30.3125 25.3358 30.2808 25.5046 30.1716 25.7813C30.066 26.0489 29.9022 26.3823 29.6742 26.785L30.5445 27.2775ZM31.3125 25.25C31.3125 25.0497 31.2163 24.8907 31.0969 24.7883C30.9923 24.6987 30.8739 24.6538 30.7858 24.6286C30.6077 24.5777 30.387 24.5625 30.1562 24.5625V25.5625C30.2546 25.5625 30.3338 25.566 30.396 25.572C30.4598 25.578 30.4956 25.5857 30.5111 25.5901C30.5323 25.5962 30.496 25.5903 30.4461 25.5476C30.418 25.5236 30.3828 25.4852 30.355 25.4297C30.3264 25.3723 30.3125 25.3102 30.3125 25.25H31.3125ZM30.1562 24.5625C28.9988 24.5625 27.1919 24.7143 24.752 25.0115L24.873 26.0041C27.3081 25.7076 29.0637 25.5625 30.1562 25.5625V24.5625ZM24.7573 25.0109C22.0982 25.3063 20.3356 25.5759 19.5306 25.8274L19.8288 26.7819C20.5237 26.5648 22.183 26.3031 24.8677 26.0048L24.7573 25.0109ZM19.544 25.8235C19.2434 25.9082 19.005 25.97 18.826 26.0102C18.7365 26.0303 18.6659 26.0441 18.6122 26.0526C18.5855 26.0569 18.5652 26.0595 18.5503 26.061C18.5347 26.0626 18.5292 26.0625 18.5312 26.0625V27.0625C18.6713 27.0625 18.8556 27.0284 19.0451 26.9859C19.2489 26.9401 19.5066 26.873 19.8154 26.7859L19.544 25.8235ZM18.5312 26.0625C18.1503 26.0625 17.7989 25.9684 17.4686 25.7778L16.9689 26.644C17.4511 26.9222 17.9747 27.0625 18.5312 27.0625V26.0625ZM17.5094 25.8041C17.1498 25.5472 17.0625 25.3293 17.0625 25.1562H16.0625C16.0625 25.7644 16.4127 26.2496 16.9281 26.6178L17.5094 25.8041ZM17.0625 25.1562C17.0625 24.9928 17.1444 24.6721 17.3899 24.1504L16.4851 23.7246C16.2306 24.2654 16.0625 24.7572 16.0625 25.1562H17.0625ZM17.3971 24.1345C17.8312 23.1216 18.1836 22.0392 18.4554 20.8883L17.4821 20.6585C17.2226 21.7577 16.8876 22.7847 16.4779 23.7405L17.3971 24.1345ZM18.4519 20.9023C18.769 19.7129 18.9375 18.7194 18.9375 17.9375H17.9375C17.9375 18.5931 17.7935 19.4902 17.4856 20.6446L18.4519 20.9023ZM18.9375 17.9375C18.9375 17.4094 18.8883 16.9403 18.7793 16.5403L17.8145 16.8034C17.8929 17.091 17.9375 17.4656 17.9375 17.9375H18.9375ZM18.7872 16.5738L18.6465 15.8707L17.666 16.0668L17.8066 16.7699L18.7872 16.5738ZM18.6562 15.9688C18.6562 15.9208 18.6679 15.9767 18.6036 16.0411C18.5392 16.1054 18.4833 16.0938 18.5312 16.0938V15.0938C18.3292 15.0938 18.0858 15.1446 17.8964 15.3339C17.7071 15.5233 17.6562 15.7667 17.6562 15.9688H18.6562Z" fill="#333333"/>
</svg>

<svg xmlns="http://www.w3.org/2000/svg" width="50" height="50" fill="none"><path fill="#333" d="M18.531 15.594c.422 0 .922.164 1.5.492.563.36.844.664.844.914 0 .14-.086.375-.258.703-.187.266-.367.695-.539 1.29-.781 2.984-1.172 4.663-1.172 5.038s.25.563.75.563c.157 0 2.407-.266 6.75-.797 2.625-.39 4.11-.68 4.453-.867.313-.203.578-.305.797-.305.266 0 .657.297 1.172.89.469.579.703 1 .703 1.266 0 .172-.156.39-.468.657-.407.343-.79.898-1.149 1.664-1.062 1.89-2.047 3.343-2.953 4.359a14.469 14.469 0 0 1-3.023 2.602c-.063 0-.094-.032-.094-.094 2.078-2.907 3.5-5.219 4.265-6.938.47-.828.703-1.422.703-1.781 0-.125-.218-.188-.656-.188-1.125 0-2.906.149-5.343.446-2.672.297-4.383.562-5.133.797-.61.172-.992.258-1.149.258-.468 0-.906-.118-1.312-.352-.438-.313-.657-.664-.657-1.055 0-.281.125-.687.375-1.218.422-.985.766-2.04 1.032-3.165.312-1.171.468-2.117.468-2.835 0-.5-.046-.922-.14-1.266l-.14-.703c0-.25.124-.375.374-.375Z"/><path fill="#333" d="m20.031 16.086.27-.421-.012-.007-.01-.007-.248.435Zm.586 1.617.409.288.019-.027.015-.029-.443-.232Zm-.539 1.29-.48-.14-.004.013.484.126Zm6.328 4.804.061.496.013-.002-.074-.494Zm4.453-.867.24.439.017-.01.016-.01-.273-.42Zm1.97.586.388-.315-.006-.007-.005-.006-.378.328Zm.233 1.922.324.381-.324-.381Zm-1.148 1.664.436.244.009-.015.008-.017-.453-.212Zm-2.953 4.359-.373-.333-.004.005.377.328Zm-3.023 2.602v.5h.148l.125-.082-.273-.419Zm-.094-.094-.407-.291-.093.13v.16h.5Zm4.265-6.938-.435-.246-.012.02-.01.023.457.203Zm-5.297-1.523.056.497h.005l-.06-.497Zm-5.132.797.136.481.013-.004-.15-.477Zm-2.461-.094-.29.407.019.014.02.012.25-.433Zm-.282-2.273.453.212.004-.008.003-.008-.46-.197Zm1.032-3.165-.483-.128-.002.006-.002.008.487.114Zm.328-4.101-.49.098.003.017.005.016.482-.131Zm-.14-.703h-.5v.05l.009.048.49-.098Zm.374.125c.3 0 .711.12 1.253.427l.494-.87c-.614-.348-1.202-.557-1.747-.557v1Zm1.231.413c.264.17.435.308.535.416.108.117.078.138.078.077h1c0-.311-.17-.567-.343-.755a3.75 3.75 0 0 0-.732-.58l-.538.842Zm.613.493c0-.017.002.011-.034.11-.033.089-.087.208-.167.361l.886.464c.092-.175.167-.337.22-.482.05-.136.095-.295.095-.453h-1Zm-.166.415c-.237.335-.435.83-.611 1.438l.96.278c.168-.58.33-.944.468-1.14l-.817-.576Zm-.615 1.45a140.24 140.24 0 0 0-.882 3.512c-.098.423-.173.769-.224 1.035a3.793 3.793 0 0 0-.082.62h1c0-.04.015-.171.065-.433.047-.248.118-.579.215-.995.194-.834.486-1.995.876-3.485l-.968-.253Zm-1.188 5.166c0 .31.111.615.388.822.25.187.564.24.862.24v-1a.874.874 0 0 1-.207-.02c-.044-.01-.057-.021-.055-.02a.062.062 0 0 1 .016.021c.003.006-.004-.004-.004-.043h-1Zm1.25 1.063c.075 0 .285-.022.565-.053l1.299-.15c1.126-.133 2.775-.332 4.947-.598l-.121-.992c-2.172.265-3.82.464-4.944.597a189.96 189.96 0 0 1-1.638.186c-.095.009-.119.01-.108.01v1Zm6.824-.803a74.79 74.79 0 0 0 3.104-.513c.376-.073.687-.141.93-.205.228-.06.44-.125.585-.204l-.48-.878a2.1 2.1 0 0 1-.357.114c-.215.056-.503.12-.87.191a73.72 73.72 0 0 1-3.06.506l.148.99Zm4.652-.942c.282-.183.449-.224.524-.224v-1c-.362 0-.726.163-1.07.386l.546.838Zm.524-.224c-.036 0 .017-.01.19.12.157.12.358.314.605.598l.755-.655c-.269-.31-.521-.56-.755-.738-.218-.166-.493-.325-.795-.325v1Zm.784.706c.224.277.38.502.478.677.049.088.079.156.096.206.018.052.017.072.017.067h1c0-.262-.109-.525-.239-.758a5.925 5.925 0 0 0-.575-.822l-.777.63Zm.591.95c0-.062.026-.066-.024.003a1.647 1.647 0 0 1-.268.273l.647.762a2.61 2.61 0 0 0 .435-.454c.107-.15.21-.35.21-.584h-1Zm-.291.275c-.485.41-.905 1.037-1.279 1.833l.906.425c.345-.735.69-1.217 1.019-1.495l-.647-.763Zm-1.262 1.8c-1.054 1.876-2.018 3.294-2.89 4.272l.746.666c.94-1.054 1.945-2.542 3.016-4.448l-.872-.49Zm-2.894 4.276a13.972 13.972 0 0 1-2.92 2.512l.547.837a14.977 14.977 0 0 0 3.127-2.692l-.754-.657Zm-2.646 2.43c.045 0 .172.012.283.123a.408.408 0 0 1 .123.284h-1c0 .108.027.281.17.424.142.142.315.17.424.17v-1Zm.313.698c2.083-2.914 3.529-5.26 4.315-7.025l-.913-.407c-.745 1.672-2.143 3.951-4.216 6.85l.813.582Zm4.293-6.982c.241-.426.43-.803.558-1.13.125-.317.21-.625.21-.898h-1c0 .086-.031.255-.14.531-.106.268-.27.601-.498 1.004l.87.492Zm.768-2.028c0-.2-.096-.36-.215-.462a.821.821 0 0 0-.311-.16 2.383 2.383 0 0 0-.63-.066v1c.099 0 .178.004.24.01.064.006.1.014.115.018.021.006-.015 0-.065-.042a.404.404 0 0 1-.134-.298h1Zm-1.156-.688c-1.157 0-2.964.152-5.404.45l.121.992c2.435-.296 4.19-.442 5.283-.442v-1Zm-5.399.449c-2.659.295-4.421.565-5.226.816l.298.955c.695-.217 2.354-.479 5.039-.777l-.11-.994Zm-5.213.813c-.3.084-.539.146-.718.186a3.529 3.529 0 0 1-.276.051l-.019.002v1c.14 0 .325-.035.514-.077.204-.046.462-.113.77-.2l-.271-.963Zm-1.013.238c-.38 0-.732-.094-1.062-.284l-.5.866a3.082 3.082 0 0 0 1.562.419v-1Zm-1.022-.258c-.36-.257-.447-.475-.447-.648h-1c0 .608.35 1.094.866 1.462l.581-.814Zm-.447-.648c0-.163.082-.484.328-1.006l-.905-.425c-.254.54-.422 1.032-.422 1.431h1Zm.335-1.021a19.748 19.748 0 0 0 1.058-3.247l-.973-.23c-.26 1.1-.594 2.127-1.004 3.082l.92.395Zm1.055-3.233c.317-1.19.485-2.183.485-2.965h-1c0 .656-.143 1.553-.451 2.708l.966.257Zm.485-2.965c0-.528-.049-.997-.158-1.397l-.965.263c.079.288.123.663.123 1.134h1Zm-.15-1.363-.14-.703-.981.196.14.703.981-.196Zm-.13-.605c0-.048.01.008-.053.072-.065.064-.12.053-.073.053v-1a.877.877 0 0 0-.635.24.877.877 0 0 0-.24.635h1Z"/></svg>
